X: 27
M: none
L: 1/8
K: F
[|\
ag/f/ gf/e/ fd cf | cA GF G2 FD |
f>gf>d cd fd | cA cF A2 f>g |\
ag/f/ gf/e/ fd cf | cA GF D2 f2 |\
cA GF (CD) (FG) | A3 G A2 f2 |]


